X: 1
T: Miss Lyall
T: Miss Lyle
T: Mrs Grant of Laggan
C: Capt. Fraser
R: reel
Z: 1997 by John Chambers <jc:trillian.mit.edu>
N: Skye p.103
N: Essentially the same as Paddy Ryan's Dream (O'Neill 1181, 1182)
M: C|
L: 1/8
K: Am
c/B/ \
| "Am"AE~E2 cABG | "G"E{F}GDG B,G,DB, | "Am"~A,2EA, CDEd | "E7"cAB^G "A"~A2 A :|
B \
| "Am"Aaa^g aecA | "G"Bgg^f gdBG | "Am"Aaa^g aefd | "E7"ecdB "Am"cAAB |
| "Am"Aaa^g aecA | "G"Bgg^f gdBG | "Am"Ac"G"Bd "Am"ce"Dm"df | "E7"ea^g^f edcB |]
